src/images/google.svg

<svg width="128" height="46" viewBox="0 0 128 46" fill="none" xmlns="http://www.w3.org/2000/svg">
<g filter="url(#filter0_d_14:1389)">
<rect x="2" y="1" width="122" height="40" rx="20" fill="#F6F7FB"/>
<path d="M58.2053 24.708C57.8453 25.1774 57.3463 25.5329 56.7083 25.7744C56.0702 26.016 55.3456 26.1367 54.5344 26.1367C53.7004 26.1367 52.9622 25.9476 52.3196 25.5693C51.677 25.1911 51.1803 24.651 50.8293 23.9492C50.483 23.2428 50.303 22.4202 50.2893 21.4814V20.7021C50.2893 19.1982 50.6493 18.0247 51.3694 17.1816C52.0894 16.334 53.0943 15.9102 54.384 15.9102C55.4915 15.9102 56.371 16.1836 57.0227 16.7305C57.6744 17.2773 58.0663 18.0658 58.1985 19.0957H56.5032C56.3118 17.8971 55.6168 17.2979 54.4182 17.2979C53.6435 17.2979 53.0533 17.5781 52.6477 18.1387C52.2467 18.6947 52.0393 19.5127 52.0256 20.5928V21.3584C52.0256 22.4339 52.2512 23.2702 52.7024 23.8672C53.1581 24.4596 53.7893 24.7559 54.5959 24.7559C55.4801 24.7559 56.109 24.5553 56.4827 24.1543V22.2061H54.4319V20.8936H58.2053V24.708ZM59.914 22.2334C59.914 21.5088 60.0576 20.8571 60.3447 20.2783C60.6318 19.695 61.0351 19.2484 61.5547 18.9385C62.0742 18.624 62.6712 18.4668 63.3457 18.4668C64.3437 18.4668 65.1526 18.7881 65.7724 19.4307C66.3968 20.0732 66.734 20.9255 66.7842 21.9873L66.791 22.377C66.791 23.1061 66.6497 23.7578 66.3672 24.332C66.0892 24.9062 65.6881 25.3506 65.164 25.665C64.6445 25.9795 64.0429 26.1367 63.3593 26.1367C62.3157 26.1367 61.4795 25.7904 60.8506 25.0977C60.2262 24.4004 59.914 23.473 59.914 22.3154V22.2334ZM61.5752 22.377C61.5752 23.138 61.7324 23.735 62.0468 24.168C62.3613 24.5964 62.7988 24.8105 63.3593 24.8105C63.9199 24.8105 64.3551 24.5918 64.665 24.1543C64.9795 23.7168 65.1367 23.0765 65.1367 22.2334C65.1367 21.486 64.9749 20.8936 64.6513 20.4561C64.3323 20.0186 63.8971 19.7998 63.3457 19.7998C62.8034 19.7998 62.3727 20.0163 62.0537 20.4492C61.7347 20.8776 61.5752 21.5202 61.5752 22.377ZM68.1647 22.2334C68.1647 21.5088 68.3083 20.8571 68.5954 20.2783C68.8825 19.695 69.2858 19.2484 69.8054 18.9385C70.3249 18.624 70.9219 18.4668 71.5964 18.4668C72.5944 18.4668 73.4033 18.7881 74.0231 19.4307C74.6475 20.0732 74.9847 20.9255 75.0349 21.9873L75.0417 22.377C75.0417 23.1061 74.9004 23.7578 74.6179 24.332C74.3399 24.9062 73.9388 25.3506 73.4147 25.665C72.8952 25.9795 72.2936 26.1367 71.61 26.1367C70.5664 26.1367 69.7302 25.7904 69.1013 25.0977C68.4769 24.4004 68.1647 23.473 68.1647 22.3154V22.2334ZM69.8259 22.377C69.8259 23.138 69.9831 23.735 70.2975 24.168C70.612 24.5964 71.0495 24.8105 71.61 24.8105C72.1706 24.8105 72.6058 24.5918 72.9157 24.1543C73.2302 23.7168 73.3874 23.0765 73.3874 22.2334C73.3874 21.486 73.2256 20.8936 72.902 20.4561C72.583 20.0186 72.1478 19.7998 71.5964 19.7998C71.0541 19.7998 70.6234 20.0163 70.3044 20.4492C69.9854 20.8776 69.8259 21.5202 69.8259 22.377ZM76.4359 22.2471C76.4359 21.0986 76.7048 20.1826 77.2426 19.499C77.7849 18.8109 78.5027 18.4668 79.3959 18.4668C80.239 18.4668 80.9021 18.7607 81.3852 19.3486L81.4604 18.6035H82.9574V25.7744C82.9574 26.7451 82.6544 27.5107 82.0483 28.0713C81.4467 28.6318 80.6332 28.9121 79.6078 28.9121C79.0655 28.9121 78.5346 28.7982 78.015 28.5703C77.5001 28.347 77.1081 28.0531 76.8393 27.6885L77.6254 26.6904C78.1358 27.2965 78.7647 27.5996 79.5121 27.5996C80.0636 27.5996 80.4988 27.4492 80.8178 27.1484C81.1368 26.8522 81.2963 26.4147 81.2963 25.8359V25.3369C80.8178 25.8701 80.1798 26.1367 79.3822 26.1367C78.5164 26.1367 77.8077 25.7926 77.2563 25.1045C76.7094 24.4163 76.4359 23.4639 76.4359 22.2471ZM78.0902 22.3906C78.0902 23.1335 78.2406 23.7191 78.5414 24.1475C78.8468 24.5713 79.2683 24.7832 79.8061 24.7832C80.476 24.7832 80.9727 24.4961 81.2963 23.9219V20.668C80.9818 20.1074 80.4897 19.8271 79.8197 19.8271C79.2729 19.8271 78.8468 20.0436 78.5414 20.4766C78.2406 20.9095 78.0902 21.5475 78.0902 22.3906ZM86.7169 26H85.0558V15.5H86.7169V26ZM92.0692 26.1367C91.0165 26.1367 90.162 25.8063 89.5057 25.1455C88.854 24.4801 88.5282 23.596 88.5282 22.4932V22.2881C88.5282 21.5498 88.6695 20.8913 88.952 20.3125C89.2391 19.7292 89.6402 19.2757 90.1551 18.9521C90.6701 18.6286 91.2443 18.4668 91.8778 18.4668C92.8849 18.4668 93.662 18.7881 94.2088 19.4307C94.7603 20.0732 95.036 20.9824 95.036 22.1582V22.8281H90.203C90.2531 23.4388 90.4559 23.9219 90.8114 24.2773C91.1714 24.6328 91.6226 24.8105 92.1649 24.8105C92.926 24.8105 93.5458 24.5029 94.0243 23.8877L94.9198 24.7422C94.6236 25.1842 94.2271 25.5283 93.7303 25.7744C93.2381 26.016 92.6844 26.1367 92.0692 26.1367ZM91.8709 19.7998C91.4152 19.7998 91.0461 19.9593 90.7635 20.2783C90.4855 20.5973 90.3078 21.0417 90.2303 21.6113H93.3954V21.4883C93.3589 20.9323 93.2108 20.513 92.951 20.2305C92.6913 19.9434 92.3312 19.7998 91.8709 19.7998Z" fill="black"/>
<g clip-path="url(#clip0_14:1389)">
<path d="M39.6589 19.334C39.737 19.334 39.8003 19.3989 39.8003 19.4789V21C39.8003 21.5693 39.7487 22.126 39.6497 22.666C38.8835 26.8604 35.2752 30.0303 30.9501 29.9998C26.0971 29.9655 22.2132 25.9498 22.2239 20.9797C22.2346 16.0186 26.1652 12 31.0121 12C33.3867 12 35.5413 12.9648 37.1232 14.5319C37.1803 14.5884 37.1818 14.6817 37.1256 14.7392L35.0242 16.8911C34.9701 16.9466 34.8827 16.948 34.8273 16.894C33.8345 15.9261 32.4912 15.332 31.0121 15.332C27.9578 15.332 25.4983 17.8328 25.4776 20.9607C25.4567 24.109 27.9427 26.668 31.0121 26.668C33.5025 26.668 35.6089 24.9832 36.3034 22.666H31.1536C31.0754 22.666 31.0121 22.6011 31.0121 22.5211V19.4789C31.0121 19.3988 31.0754 19.334 31.1536 19.334H39.6589V19.334Z" fill="#2196F3"/>
<path d="M39.6585 19.334H38.5976C38.6757 19.334 38.739 19.3988 38.739 19.4789V21C38.739 21.5693 38.6874 22.126 38.5884 22.666C37.8575 26.6675 34.5397 29.7365 30.4807 29.9837C30.636 29.9931 30.7924 29.9986 30.9498 29.9997C35.2749 30.0303 38.8832 26.8604 39.6493 22.666C39.7484 22.126 39.8 21.5693 39.8 21V19.4788C39.8 19.3988 39.7366 19.334 39.6585 19.334Z" fill="#1E88E5"/>
<path d="M25.9846 18.6263L23.3156 16.6514C24.8129 13.8779 27.6983 12 31.0117 12C33.3864 12 35.5409 12.9648 37.1228 14.5319C37.1799 14.5884 37.1814 14.6817 37.1252 14.7392L35.0238 16.8911C34.9698 16.9464 34.8824 16.9482 34.8271 16.8942C33.8343 15.9263 32.4909 15.332 31.0117 15.332C28.7827 15.332 26.8613 16.6814 25.9846 18.6263Z" fill="#F44336"/>
<path d="M25.2141 18.0562L25.9846 18.6264C26.7848 16.8512 28.4556 15.5727 30.436 15.363C30.4509 15.3613 30.4652 15.3593 30.4804 15.3578C30.3061 15.3409 30.1295 15.332 29.9508 15.332C27.9372 15.332 26.1823 16.4192 25.2141 18.0562Z" fill="#E53935"/>
<path d="M36.0619 14.5319C36.119 14.5884 36.1205 14.6817 36.0643 14.7392L34.3587 16.4859C34.5221 16.6132 34.6785 16.7493 34.8269 16.894C34.8824 16.948 34.9698 16.9466 35.0239 16.8912L37.1252 14.7392C37.1814 14.6817 37.1799 14.5885 37.1228 14.5319C35.541 12.9648 33.3864 12 31.0118 12C30.8336 12 30.6568 12.0061 30.4812 12.0168C32.6453 12.1488 34.5987 13.0823 36.0619 14.5319Z" fill="#E53935"/>
<path d="M37.4585 27.1164C35.8537 28.89 33.5592 30 31.0118 30C27.5712 30 24.5924 27.9751 23.1498 25.0252L25.8746 23.1129C26.6923 25.1965 28.6844 26.668 31.0118 26.668C32.4724 26.668 33.8007 26.0885 34.7895 25.1418L37.4585 27.1164Z" fill="#4CAF50"/>
<path d="M25.8747 23.1129L25.0712 23.6768C26.0044 25.4572 27.8396 26.668 29.9509 26.668C30.1294 26.668 30.3059 26.659 30.4801 26.6421C28.3844 26.4375 26.6293 25.0359 25.8747 23.1129Z" fill="#43A047"/>
<path d="M31.0118 30.0001C33.5592 30.0001 35.8537 28.89 37.4585 27.1165L36.8048 26.6328C35.2979 28.5534 33.0373 29.8275 30.4827 29.9837C30.6577 29.9944 30.8341 30.0001 31.0118 30.0001Z" fill="#43A047"/>
<path d="M25.4771 21C25.4771 21.7468 25.6182 22.4599 25.8746 23.1129L23.1497 25.0252C22.557 23.8141 22.2235 22.4469 22.2235 21C22.2235 19.4227 22.6196 17.9403 23.3156 16.6514L25.9846 18.6263C25.6589 19.3481 25.4771 20.1525 25.4771 21Z" fill="#FFC107"/>
<path d="M25.0711 23.6768L25.8746 23.1129C25.6182 22.4599 25.4771 21.7468 25.4771 21C25.4771 20.1525 25.6589 19.3481 25.9846 18.6263L25.2141 18.0562C24.7137 18.9022 24.4233 19.895 24.4163 20.9607C24.4097 21.9434 24.6475 22.8688 25.0711 23.6768Z" fill="#FFB300"/>
</g>
</g>
<defs>
<filter id="filter0_d_14:1389" x="0" y="0" width="128" height="46" filterUnits="userSpaceOnUse" color-interpolation-filters="sRGB">
<feFlood flood-opacity="0" result="BackgroundImageFix"/>
<feColorMatrix in="SourceAlpha" type="matrix" values="0 0 0 0 0 0 0 0 0 0 0 0 0 0 0 0 0 0 127 0" result="hardAlpha"/>
<feOffset dx="1" dy="2"/>
<feGaussianBlur stdDeviation="1.5"/>
<feColorMatrix type="matrix" values="0 0 0 0 0.666667 0 0 0 0 0.698039 0 0 0 0 0.772549 0 0 0 0.2 0"/>
<feBlend mode="normal" in2="BackgroundImageFix" result="effect1_dropShadow_14:1389"/>
<feBlend mode="normal" in="SourceGraphic" in2="effect1_dropShadow_14:1389" result="shape"/>
</filter>
<clipPath id="clip0_14:1389">
<rect width="17.5765" height="18" fill="white" transform="translate(22.2235 12)"/>
</clipPath>
</defs>
</svg>

<svg fill="none" xmlns="http://www.w3.org/2000/svg" viewBox="0 0 128 46"><g filter="url(#a)"><rect x="2" y="1" width="122" height="40" rx="20" fill="#F6F7FB"/><path d="M58.205 24.708c-.36.47-.859.825-1.497 1.066-.638.242-1.362.363-2.174.363-.834 0-1.572-.19-2.214-.568a3.805 3.805 0 0 1-1.49-1.62c-.347-.706-.527-1.529-.54-2.468v-.779c0-1.504.36-2.677 1.08-3.52.72-.848 1.724-1.272 3.014-1.272 1.108 0 1.987.274 2.639.82.651.547 1.043 1.336 1.175 2.366h-1.695c-.191-1.199-.886-1.798-2.085-1.798-.774 0-1.365.28-1.77.84-.401.557-.609 1.375-.622 2.455v.765c0 1.076.225 1.912.676 2.51.456.592 1.087.888 1.894.888.884 0 1.513-.2 1.887-.602v-1.948h-2.051v-1.312h3.773v3.814Zm1.709-2.475c0-.724.144-1.376.43-1.955.288-.583.691-1.03 1.21-1.34.52-.314 1.117-.471 1.792-.471.998 0 1.807.321 2.426.964.625.642.962 1.494 1.012 2.556l.007.39c0 .73-.141 1.38-.424 1.955a3.08 3.08 0 0 1-1.203 1.333c-.52.315-1.121.472-1.805.472-1.043 0-1.88-.347-2.508-1.04-.625-.697-.937-1.624-.937-2.782v-.082Zm1.661.144c0 .761.157 1.358.472 1.791.314.428.752.643 1.312.643s.996-.22 1.306-.657c.314-.437.472-1.078.472-1.92 0-.748-.162-1.34-.486-1.778-.319-.437-.754-.656-1.305-.656-.543 0-.973.216-1.292.65-.32.428-.479 1.07-.479 1.927Zm6.59-.144c0-.724.143-1.376.43-1.955.287-.583.69-1.03 1.21-1.34.52-.314 1.117-.471 1.791-.471.998 0 1.807.321 2.427.964.624.642.962 1.494 1.012 2.556l.007.39c0 .73-.142 1.38-.424 1.955a3.08 3.08 0 0 1-1.203 1.333c-.52.315-1.121.472-1.805.472-1.044 0-1.88-.347-2.509-1.04-.624-.697-.936-1.624-.936-2.782v-.082Zm1.66.144c0 .761.158 1.358.472 1.791.315.428.752.643 1.313.643.56 0 .996-.22 1.306-.657.314-.437.471-1.078.471-1.92 0-.748-.161-1.34-.485-1.778-.319-.437-.754-.656-1.306-.656-.542 0-.973.216-1.292.65-.319.428-.478 1.07-.478 1.927Zm6.61-.13c0-1.148.27-2.064.808-2.748.542-.688 1.26-1.032 2.153-1.032.843 0 1.506.294 1.99.882l.074-.745h1.497v7.17c0 .971-.303 1.737-.909 2.297-.601.56-1.415.841-2.44.841a3.929 3.929 0 0 1-1.593-.342c-.515-.223-.907-.517-1.176-.881l.786-.999c.51.607 1.14.91 1.887.91.552 0 .987-.15 1.306-.452.319-.296.478-.733.478-1.312v-.5c-.478.534-1.116.8-1.914.8-.866 0-1.574-.343-2.126-1.031-.547-.689-.82-1.641-.82-2.858Zm1.655.144c0 .743.15 1.328.451 1.757.306.423.727.635 1.265.635.67 0 1.167-.287 1.49-.861v-3.254c-.314-.56-.806-.84-1.476-.84-.547 0-.973.216-1.279.649-.3.433-.45 1.07-.45 1.914ZM86.717 26h-1.661V15.5h1.66V26Zm5.352.137c-1.053 0-1.907-.33-2.563-.992-.652-.665-.978-1.549-.978-2.652v-.205c0-.738.141-1.397.424-1.976a3.271 3.271 0 0 1 1.203-1.36 3.172 3.172 0 0 1 1.723-.485c1.007 0 1.784.321 2.33.964.552.642.828 1.551.828 2.727v.67h-4.833c.05.61.253 1.094.608 1.45.36.355.812.533 1.354.533.761 0 1.38-.308 1.86-.923l.895.854a3.01 3.01 0 0 1-1.19 1.032 3.72 3.72 0 0 1-1.66.363Zm-.198-6.337c-.456 0-.825.16-1.108.478-.278.32-.455.764-.533 1.333h3.165v-.123c-.036-.556-.184-.975-.444-1.258-.26-.287-.62-.43-1.08-.43Z" fill="#000"/><g clip-path="url(#b)"><path d="M39.659 19.334c.078 0 .141.065.141.145V21c0 .57-.051 1.126-.15 1.666-.767 4.194-4.375 7.364-8.7 7.334-4.853-.035-8.737-4.05-8.726-9.02.01-4.961 3.941-8.98 8.788-8.98 2.375 0 4.53.965 6.111 2.532.057.056.059.15.003.207l-2.102 2.152a.139.139 0 0 1-.197.003 5.447 5.447 0 0 0-3.815-1.562c-3.054 0-5.514 2.5-5.534 5.629-.021 3.148 2.465 5.707 5.534 5.707 2.49 0 4.597-1.685 5.291-4.002h-5.15a.143.143 0 0 1-.14-.145V19.48c0-.08.062-.145.14-.145h8.506Z" fill="#2196F3"/><path d="M39.658 19.334h-1.06c.078 0 .141.065.141.145V21c0 .57-.052 1.126-.15 1.666-.731 4.002-4.05 7.07-8.108 7.318.155.01.311.015.469.016 4.325.03 7.933-3.14 8.7-7.334.098-.54.15-1.097.15-1.666v-1.521a.143.143 0 0 0-.142-.145Z" fill="#1E88E5"/><path d="m25.985 18.626-2.67-1.975C24.814 13.878 27.699 12 31.013 12c2.374 0 4.529.965 6.11 2.532.058.056.06.15.003.207l-2.101 2.152a.139.139 0 0 1-.197.003 5.447 5.447 0 0 0-3.815-1.562c-2.23 0-4.15 1.35-5.027 3.294Z" fill="#F44336"/><path d="m25.214 18.056.77.57c.8-1.775 2.472-3.053 4.452-3.263l.044-.005a5.485 5.485 0 0 0-.53-.026c-2.013 0-3.768 1.087-4.736 2.724ZM36.062 14.532c.057.056.059.15.002.207l-1.705 1.747c.163.127.32.263.468.408a.139.139 0 0 0 .197-.003l2.101-2.152a.148.148 0 0 0-.002-.207 8.655 8.655 0 0 0-6.642-2.515 8.665 8.665 0 0 1 5.58 2.515Z" fill="#E53935"/><path d="M37.459 27.116C35.854 28.89 33.559 30 31.012 30c-3.44 0-6.42-2.025-7.862-4.975l2.725-1.912c.817 2.084 2.81 3.555 5.137 3.555 1.46 0 2.789-.58 3.777-1.526l2.67 1.974Z" fill="#4CAF50"/><path d="m25.875 23.113-.804.564c.933 1.78 2.769 2.991 4.88 2.991.178 0 .355-.009.53-.026-2.097-.204-3.852-1.606-4.606-3.53ZM31.012 30c2.547 0 4.842-1.11 6.447-2.884l-.654-.483c-1.507 1.92-3.768 3.195-6.322 3.35.175.011.351.017.529.017Z" fill="#43A047"/><path d="M25.477 21c0 .747.141 1.46.398 2.113l-2.725 1.912A9.135 9.135 0 0 1 22.224 21c0-1.577.396-3.06 1.092-4.349l2.669 1.975A5.76 5.76 0 0 0 25.477 21Z" fill="#FFC107"/><path d="m25.071 23.677.804-.564A5.77 5.77 0 0 1 25.477 21c0-.848.182-1.652.508-2.374l-.77-.57c-.501.846-.792 1.839-.799 2.905a5.751 5.751 0 0 0 .655 2.716Z" fill="#FFB300"/></g></g><defs><clipPath id="b"><path fill="#fff" transform="translate(22.224 12)" d="M0 0h17.576v18H0z"/></clipPath><filter id="a" x="0" y="0" width="128" height="46" filterUnits="userSpaceOnUse" color-interpolation-filters="sRGB"><feFlood flood-opacity="0" result="BackgroundImageFix"/><feColorMatrix in="SourceAlpha" values="0 0 0 0 0 0 0 0 0 0 0 0 0 0 0 0 0 0 127 0" result="hardAlpha"/><feOffset dx="1" dy="2"/><feGaussianBlur stdDeviation="1.5"/><feColorMatrix values="0 0 0 0 0.666667 0 0 0 0 0.698039 0 0 0 0 0.772549 0 0 0 0.2 0"/><feBlend in2="BackgroundImageFix" result="effect1_dropShadow_14:1389"/><feBlend in="SourceGraphic" in2="effect1_dropShadow_14:1389" result="shape"/></filter></defs></svg>
